X: 30283
M: 3/4
L: 1/8
K: G
g2 |\
f2z2e2 | d2z2^c2 | e2z2d2 | .B.B.B.B.B.B |\
c2z2d2 | .A.A.A.A.A.A | B2z2d2 | g2z2g2 |\
f2z2e2 | d2z2^c2 | e2z2d2 | .B.B.B.B.B.B |\
c2z2d2 | .A.A.A.A.A.A | g2fgdB | G2z2 :|
|: .f2 |\
.g2z2.a2 | .b2z2.g2 | .f2z2.g2 | .a.a.a.a.a.a |\
.e2z2.f2 | .g.g.g.g.g.g | .d2z2.e2 | .f.f.f.f.f.f |\
.g2z2.a2 | .^c'3 .b.a.g | .f2z2.g2 | .b3agf |\
e2z2f2 | a3gfe | d2(d^cde) | d2z2 :|
|: g2 |\
.f2z2.e2 | .d2z.c2 | .e2z2.d2 | .B.B.B.B.B.B |\
c2z2d2 | .A.A.A.A.A.A |[1 B2z2d2 | g2z2 :|[2 g2fgdB | G2z2 |]\
[K:=f][K:C]\
e2z2d2 | c2z2G2 | (A4G2) | (A4G2) |\
.e2z2.d2 | .c2z2G2 | F2D2G2 | C2z2 :|


